src/icons/scalable/actions/connected-squares-x-symbolic.svg

<?xml version="1.0" encoding="UTF-8"?>
<svg xmlns="http://www.w3.org/2000/svg" height="16px" viewBox="0 0 16 16" width="16px"><g fill="#2e3436"><path d="m 15 10 c 0.265625 0 0.519531 0.105469 0.707031 0.292969 c 0.390625 0.390625 0.390625 1.023437 0 1.414062 l -1.292969 1.292969 l 1.292969 1.292969 c 0.390625 0.390625 0.390625 1.023437 0 1.414062 s -1.023437 0.390625 -1.414062 0 l -1.292969 -1.292969 l -1.292969 1.292969 c -0.390625 0.390625 -1.023437 0.390625 -1.414062 0 s -0.390625 -1.023437 0 -1.414062 l 1.292969 -1.292969 l -1.292969 -1.292969 c -0.390625 -0.390625 -0.390625 -1.023437 0 -1.414062 c 0.1875 -0.1875 0.441406 -0.292969 0.707031 -0.292969 s 0.519531 0.105469 0.707031 0.292969 l 1.292969 1.292969 l 1.292969 -1.292969 c 0.1875 -0.1875 0.441406 -0.292969 0.707031 -0.292969 z m 0 0"/><path d="m 6 0 c -0.554688 0 -1 0.445312 -1 1 v 3 c 0 0.554688 0.445312 1 1 1 h 1 v 2 h -7 v 2 h 2 v 2 h -1 c -0.554688 0 -1 0.445312 -1 1 v 3 c 0 0.554688 0.445312 1 1 1 h 4 c 0.554688 0 1 -0.445312 1 -1 v -3 c 0 -0.554688 -0.445312 -1 -1 -1 h -1 v -2 h 12 v -2 h -7 v -2 h 1 c 0.554688 0 1 -0.445312 1 -1 v -3 c 0 -0.554688 -0.445312 -1 -1 -1 z m 0 0" fill-opacity="0.34902"/></g></svg>

<svg xmlns="http://www.w3.org/2000/svg" width="16" height="16" viewBox="0 0 16 16"><g fill="#2e3436"><path d="M15 10a1 1 0 0 1 .707 1.707L14.414 13l1.293 1.293a1 1 0 1 1-1.414 1.414L13 14.414l-1.293 1.293a1 1 0 1 1-1.414-1.414L11.586 13l-1.293-1.293a1 1 0 1 1 1.414-1.414L13 11.586l1.293-1.293A1 1 0 0 1 15 10m0 0"/><path fill-opacity=".349" d="M6 0c-.555 0-1 .445-1 1v3c0 .555.445 1 1 1h1v2H0v2h2v2H1c-.555 0-1 .445-1 1v3c0 .555.445 1 1 1h4c.555 0 1-.445 1-1v-3c0-.555-.445-1-1-1H4V9h12V7H9V5h1c.555 0 1-.445 1-1V1c0-.555-.445-1-1-1zm0 0"/></g></svg>
